!!!OTL: Qingyuan xiahai jia yuxia
!!!ARE: Asia, China,ˇGuangdong, Yaxian
!! II, 393
!!!SCT: C1511
!!!YEM: Copyright 1995, estate of Helmut Schaffrath.
**kern
*ICvox
*Ivox
*M2/4
*k[f#c#g#]
*A:
{8bb
16ff#
16aa
8.bb
16aa#
=1
4bb
8aa
8bb
=2
8ff#
8ee
4ff#
=3
8aa
8bb
8ff#
[8ee
=4
2ee]}
=5
{4ff#
4bb
=6
4ff#
8bb
8aa
=7
4bb
8ff#
8ee
=8
4ff#
[4ee
=9
2ee]}
=10
{8bb
16ff#
16aa
4bb
=11
4bb
8aa
8bb
=12
4ff#
8aa
8bb
=13
4ff#
[4ee
=14
2ee]}
=15
{4ff#
4bb
=16
8aa
8ee
8ff#
8r
=17
4bb
8aa
8ee
=18
8ff#
8ee
[4ee
=19
2ee]}
=20
{8bb
8ff#
8bb
8aa
=21
4bb
8aa
8bb
=22
8ff#
8ee
4ff#
=23
4aa
4ffn
=24
2ee}
=25
{4ff#
4bb
=26
8aa
8bb
4ff#
=27
8ee
8gg#
8ff#
8ff#
=28
4ee
[4ee
=29
2ee]}
=30
{8ee
16ee
16ff#
8bb
8aa
=31
4bb
8aa
8bb
=32
8aa
8ff#
4ff#
=33
8aa
16bb
16aa
8ff#
8ee}
=34
{8ff#
8bb
8aa
8ee
=35
4ff#
8ee
8gg#
=36
8ff#
8ee
4ff#
=37
2ee}
==
!!!AGN: Xiaodiao. FunÅ ku
!!!AMT: simple duple
!!!AIN: vox
!!!EED: Helmut Schaffrath
!!!EEV: 1.0
*-
!!!ONB: Tied note syntax fixed by Craig Sapp, 2004/05/03/
